X:1    
T:The Proud Tailor
B:Palmer, Roy, 1998, A Book of British Ballads, Llanerch
S:Sam Bennet (1865-1951) of Ilmington
Z:Carpenter Collection
F:http://www.folkinfo.org/songs
M:6/8     %Meter
L:1/8     %
Q:1/4=80
K:G
D/D/ |GAB/B/ ABc |dAd BAG |
w:I can tell you how the world be-gun, Ben-ja-min Bo-gle-gun, 
GDG/G/ GAB | ABc d2
w:Tell you how the world be-gun, Low cast a-way.
d/d/ |ded/d/ dBG |cBA FED  |
w: I can tell you how the world be-gun, Nine tail-ors make a man, 
 GAB Adc | BGF G2
w:Still the proud tail-or went pran-cing a-way,
 G |GAB Adc |BGF G2  |]
w: And still the proud tail-or went pran-cing a-way 